X: 1
T: Gruss aus den Bergen (Babeli) CFBb chords
T:Hanny Christen. Bd.VIII Zug, Luzern, Uri I. S.263 (st09902) orig. C,F,Bb-Dur
T: Tänze aus Weggis (Luzern)
M:2/4
L:1/16
K:C %%MIDI gchordon
"C"G2ce G2ce | g2ag e2g2 | ageg agec | "G7"B2g2 f2GG | G2Bd G2Bd | g2B2 f2gg | g^fga g3B |1 "C"c2g2 e2GG :|2 
"C"c2e2 c2z2 |: [K:F] "C7"bagf edcB | "F"A2c2 f2ga | "C7"b2c2 e2c2 | "F"a2c2 f2ga | "C7"bagf edcB | "F"A2c2 f2ga | "C7"b2eg c2de |  
"F"f2a2 f2z2 :: [K:Bb] [L:1/8] "Bb"B>d f>d | b>f dB | "F7"A>c f>e | a4 | A>c f>e | a>f eA | "Bb"B>d f>d | 
b4 | B>d f>d | b>f dB | "F7"A>c f>e | a4 | A>c f>e | a>f eA | "Bb".B2 "F7"f>A | "Bb"Bd Bz :| 

